src/assets/icons/social/mail.svg

<svg width="36" height="38" viewBox="0 0 36 38" fill="none" xmlns="http://www.w3.org/2000/svg">
<ellipse cx="18" cy="18.9999" rx="18" ry="18.0036" fill="white"/>
<path d="M10.8 10.9192H25.2C26.19 10.9192 27 11.7292 27 12.7192V23.5192C27 24.5092 26.19 25.3192 25.2 25.3192H10.8C9.81 25.3192 9 24.5092 9 23.5192V12.7192C9 11.7292 9.81 10.9192 10.8 10.9192Z" stroke="#383638" stroke-width="2" stroke-linecap="round" stroke-linejoin="round"/>
<path d="M27 12.719L18 19.019L9 12.719" stroke="#383638" stroke-width="2" stroke-linecap="round" stroke-linejoin="round"/>
</svg>

<svg width="36" height="38" fill="none" xmlns="http://www.w3.org/2000/svg"><ellipse cx="18" cy="19" rx="18" ry="18.004" fill="#fff"/><path d="M10.8 10.92h14.4c.99 0 1.8.81 1.8 1.8v10.8c0 .99-.81 1.8-1.8 1.8H10.8c-.99 0-1.8-.81-1.8-1.8v-10.8c0-.99.81-1.8 1.8-1.8Z" stroke="#383638" stroke-width="2" stroke-linecap="round" stroke-linejoin="round"/><path d="m27 12.719-9 6.3-9-6.3" stroke="#383638" stroke-width="2" stroke-linecap="round" stroke-linejoin="round"/></svg>
